resources/icons/20px/folder-shared.svg

<svg xmlns="http://www.w3.org/2000/svg" viewBox="0 0 20 20">
  <path d="M11 4H9.41l-1.7-1.71A1 1 0 0 0 7 2H1c-.55 0-1 .45-1 1v3h11.78C11.3 5.47 11 4.77 11 4m8-1h-5c-.55 0-1 .45-1 1s.45 1 1 1h2.59L12.3 9.29c-.19.18-.3.43-.3.71a1.003 1.003 0 0 0 1.71.71L18 6.41V9c0 .55.45 1 1 1s1-.45 1-1V4c0-.55-.45-1-1-1m-2.46 7.7-1.42 1.42a2.996 2.996 0 1 1-4.24-4.24l.88-.88H0v10c0 .55.45 1 1 1h18c.55 0 1-.45 1-1v-5.18c-.31.11-.65.18-1 .18-1.02 0-1.92-.52-2.46-1.3"/>
</svg>

<?xml version="1.0" encoding="utf-8"?>
<!-- Generator: Adobe Illustrator 17.1.0, SVG Export Plug-In . SVG Version: 6.00 Build 0)  -->
<!DOCTYPE svg PUBLIC "-//W3C//DTD SVG 1.1//EN" "http://www.w3.org/Graphics/SVG/1.1/DTD/svg11.dtd">
<svg version="1.1" id="Layer_1" xmlns="http://www.w3.org/2000/svg" xmlns:xlink="http://www.w3.org/1999/xlink" x="0px" y="0px"
	 viewBox="0 0 20 20" enable-background="new 0 0 20 20" xml:space="preserve">
<g id="folder_shared_1_">
	<g>
		<path fill-rule="evenodd" clip-rule="evenodd" d="M11,4H9.41L7.71,2.29C7.53,2.11,7.28,2,7,2H1C0.45,2,0,2.45,0,3v3h11.78
			C11.3,5.47,11,4.77,11,4z M19,3h-5c-0.55,0-1,0.45-1,1c0,0.55,0.45,1,1,1h2.59l-4.29,4.29C12.11,9.47,12,9.72,12,10
			c0,0.55,0.45,1,1,1c0.28,0,0.53-0.11,0.71-0.29L18,6.41V9c0,0.55,0.45,1,1,1s1-0.45,1-1V4C20,3.45,19.55,3,19,3z M16.54,10.7
			l-1.42,1.42C14.58,12.66,13.83,13,13,13c-1.66,0-3-1.34-3-3c0-0.83,0.34-1.58,0.88-2.12L11.76,7H0v10c0,0.55,0.45,1,1,1h18
			c0.55,0,1-0.45,1-1v-5.18C19.69,11.93,19.35,12,19,12C17.98,12,17.08,11.48,16.54,10.7z"/>
	</g>
</g>
</svg>
